svgs/der_spiegel.svg

<svg xmlns="http://www.w3.org/2000/svg" width="192" height="192" viewBox="0 0 50.8 50.8"><g fill="none" stroke="#000" stroke-linecap="round" stroke-linejoin="round" stroke-width="3.175"><path d="M21.099 5.824h8.397m7.837 6.584v5.434m0 0h-7.837m0 0v-5.434h-8.397"/><path d="M21.099 12.408v8.858h16.235m-.001 0v17.255"/><path d="M13.492 12.408v15.51h16.004m0 0v10.604m0 0h-8.397m0-7.197v7.197m0-7.197h-7.607l-.034 7.197m7.641 6.454h8.397m-16.038-6.454c.034 6.454 7.641 6.454 7.641 6.454m-7.607-32.568c0-6.584 7.607-6.584 7.607-6.584m8.397 0c7.837 0 7.837 6.584 7.837 6.584m-7.837 32.568c7.837 0 7.837-6.454 7.837-6.454"/></g></svg>

<svg width="192" height="192" viewBox="0 0 50.8 50.8" xml:space="preserve" xmlns="http://www.w3.org/2000/svg"><g fill="none" stroke="#000" stroke-linecap="round" stroke-linejoin="round" stroke-width="3.175"><path d="M21.099 5.824h8.397M37.333 12.408v5.434M37.333 17.842h-7.837M29.496 17.842v-5.434h-8.397"/><path d="M21.099 12.408v8.858h16.235M37.333 21.266v17.255"/><path d="M13.492 12.408v15.51h16.004M29.496 27.918v10.604M29.496 38.522h-8.397M21.099 31.325v7.197M21.099 31.325h-7.607l-.034 7.197M21.099 44.976h8.397M13.458 38.522c.034 6.454 7.641 6.454 7.641 6.454M13.492 12.408c0-6.584 7.607-6.584 7.607-6.584M29.496 5.824c7.837 0 7.837 6.584 7.837 6.584M29.496 44.976c7.837 0 7.837-6.454 7.837-6.454"/></g></svg>
